X:138
T:Alice Siobhan Maguire 
R:hornpipe
C: 2009, 2010 L.E. McCullough  
M:4/4
L:1/8
K:D
ag|: (3fga gf egfe | dcAF G2FG | ABde fdge | feed e2ag |
(3fga gf egfe | dcAF ~g3e | fedf gecd |1 eddc d2ag :|2 eddc d2cd ||
|:~e3f ecAc | edef g2ag | ~f3d gfed | eAA^G A2cd |
edef ecAc | edef g2ag | fAdf gecd |1 eddc d2cd :|2 eddc d2ag ||
<end>
<start>
